X:1
T:Forked Deer - D
L:1/8
M:C|
K:D
|: "D"defg a2fa | "G"g2gb agfe | "D"defg a2fa | "A"gfed cABc | 
|: "A"A2A2c4 | ABAF E2 EF | A2AB c2cA | "D"BAFE FD3 |

